static/img/docs/concepts/designatedTimestamp.svg

<?xml version="1.0" encoding="UTF-8" standalone="no"?> <!-- Created with Vectornator for iOS (http://vectornator.io/) --><!DOCTYPE svg PUBLIC "-//W3C//DTD SVG 1.1//EN" "http://www.w3.org/Graphics/SVG/1.1/DTD/svg11.dtd">
<svg height="100%" style="fill-rule:evenodd;clip-rule:evenodd;stroke-linecap:round;stroke-linejoin:round;" xmlns:xlink="http://www.w3.org/1999/xlink" xmlns="http://www.w3.org/2000/svg" xml:space="preserve" width="100%" xmlns:vectornator="http://vectornator.io" version="1.1" viewBox="0 0 170.1 141.75">
<metadata>
<vectornator:setting key="DynamicGuides" value="1"/>
<vectornator:setting key="Units" value="Points"/>
<vectornator:setting key="RulersVisible" value="1"/>
<vectornator:setting key="SnapToGuides" value="1"/>
<vectornator:setting key="GridSpacing" value="36"/>
</metadata>
<defs>
<linearGradient y1="93.6252" id="LinearGradient" x1="29.5296" y2="73.9473" x2="29.5296" gradientUnits="userSpaceOnUse" gradientTransform="matrix(1 -2.22045e-16 2.22045e-16 1 13.7343 -10.0674)">
<stop stop-color="#d14671" offset="0"/>
<stop stop-color="#ffffff" offset="1"/>
</linearGradient>
</defs>
<g id="layer1 copy" vectornator:layerName="layer1 copy">
<path d="M51.5045+15.8406L131.775+15.8406C132.864+15.8406+133.747+16.2895+133.747+16.8433L133.747+101.908C133.747+102.462+132.864+102.911+131.775+102.911L51.5045+102.911C50.4153+102.911+49.5323+102.462+49.5323+101.908L49.5323+16.8433C49.5323+16.2895+50.4153+15.8406+51.5045+15.8406Z" fill-rule="evenodd" fill="#464353" opacity="1"/>
<text x="0" font-family="sans-serif" y="0" text-anchor="middle" vectornator:text="Table" fill="#ffffff" font-size="5" vectornator:width="14.9531" opacity="1" transform="matrix(1 0 0 1 84.1631 20.3312)">
<tspan x="7.47656" y="5" textLength="11.9531">
Table</tspan>
</text>
<path d="M44.7029+101.564L44.9996+101.245L47.401+98.6713L47.6114+98.4442C47.6402+98.4127+47.6425+98.3764+47.6178+98.3437C47.5931+98.311+47.5436+98.2848+47.4808+98.2712C47.4517+98.265+47.4206+98.2618+47.3893+98.2617L45.9615+98.255C45.8257+98.2544+45.715+98.1974+45.7136+98.1274L45.6753+91.8174C45.6748+91.7474+45.5649+91.6899+45.4291+91.6888L43.4132+91.6795C43.2767+91.6788+43.1664+91.7354+43.1668+91.8058L43.2052+98.1157C43.2046+98.1854+43.0957+98.2413+42.9605+98.2411L41.501+98.2344C41.4697+98.2342+41.4387+98.2371+41.4096+98.243C41.3469+98.2561+41.2977+98.2819+41.2735+98.3145C41.2494+98.3471+41.2524+98.3835+41.2818+98.4152L41.4982+98.644L43.9564+101.24L44.2602+101.562C44.3024+101.606+44.3884+101.634+44.4823+101.634C44.5762+101.634+44.6616+101.607+44.7029+101.564Z" fill-rule="evenodd" fill="#d14671" opacity="1"/>
<path d="M96.0454+55.807L127.917+55.807C128.349+55.807+128.7+56.0255+128.7+56.2951L128.7+97.7048C128.7+97.9744+128.349+98.193+127.917+98.193L96.0454+98.193C95.6129+98.193+95.2623+97.9744+95.2623+97.7048L95.2623+56.2951C95.2623+56.0255+95.6129+55.807+96.0454+55.807Z" fill-rule="evenodd" fill="#5f5e67" opacity="1"/>
<path d="M43.2639+90.8312L43.2639+56.3076C43.2639+55.8391+43.2761+55.4593+43.2911+55.4593L45.6011+55.4593C45.6161+55.4593+45.6283+55.8391+45.6283+56.3076L45.6283+90.8312C45.6283+91.2997+45.6161+91.6795+45.6011+91.6795L43.2911+91.6795C43.2761+91.6795+43.2639+91.2997+43.2639+90.8312Z" fill-rule="evenodd" fill="url(#LinearGradient)" opacity="1"/>
<path stroke="#61cfee" fill-rule="evenodd" stroke-width="0.5" d="M55.5351+55.807L87.4066+55.807C87.8391+55.807+88.1897+56.0255+88.1897+56.2951L88.1897+97.7048C88.1897+97.9744+87.8391+98.193+87.4066+98.193L55.5351+98.193C55.1027+98.193+54.7521+97.9744+54.7521+97.7048L54.7521+56.2951C54.7521+56.0255+55.1027+55.807+55.5351+55.807Z" fill="#5f5e67" stroke-linecap="round" opacity="1" stroke-linejoin="round"/>
<path d="M58.6871+60.0187L84.2547+60.0187C84.6016+60.0187+84.8829+60.0452+84.8829+60.0779L84.8829+65.0973C84.8829+65.1299+84.6016+65.1564+84.2547+65.1564L58.6871+65.1564C58.3401+65.1564+58.0589+65.1299+58.0589+65.0973L58.0589+60.0779C58.0589+60.0452+58.3401+60.0187+58.6871+60.0187Z" fill-rule="evenodd" fill-opacity="0.204004" fill="#d14671" opacity="1"/>
<path d="M58.6871+66.3064L84.2547+66.3064C84.6016+66.3064+84.8829+66.3329+84.8829+66.3656L84.8829+71.385C84.8829+71.4177+84.6016+71.4442+84.2547+71.4442L58.6871+71.4442C58.3401+71.4442+58.0589+71.4177+58.0589+71.385L58.0589+66.3656C58.0589+66.3329+58.3401+66.3064+58.6871+66.3064Z" fill-rule="evenodd" fill-opacity="0.404088" fill="#d14671" opacity="1"/>
<path d="M58.6871+72.4089L84.2547+72.4089C84.6016+72.4089+84.8829+72.4354+84.8829+72.4681L84.8829+77.4875C84.8829+77.5202+84.6016+77.5466+84.2547+77.5466L58.6871+77.5466C58.3401+77.5466+58.0589+77.5202+58.0589+77.4875L58.0589+72.4681C58.0589+72.4354+58.3401+72.4089+58.6871+72.4089Z" fill-rule="evenodd" fill-opacity="0.576521" fill="#d14671" opacity="1"/>
<path d="M58.6871+78.6966L84.2547+78.6966C84.6016+78.6966+84.8829+78.7231+84.8829+78.7558L84.8829+83.7752C84.8829+83.8079+84.6016+83.8344+84.2547+83.8344L58.6871+83.8344C58.3401+83.8344+58.0589+83.8079+58.0589+83.7752L58.0589+78.7558C58.0589+78.7231+58.3401+78.6966+58.6871+78.6966Z" fill-rule="evenodd" fill-opacity="0.690555" fill="#d14671" opacity="1"/>
<path d="M58.7446+84.8344L84.3122+84.8344C84.6592+84.8344+84.9404+84.8609+84.9404+84.8935L84.9404+89.9129C84.9404+89.9456+84.6592+89.9721+84.3122+89.9721L58.7446+89.9721C58.3976+89.9721+58.1164+89.9456+58.1164+89.9129L58.1164+84.8935C58.1164+84.8609+58.3976+84.8344+58.7446+84.8344Z" fill-rule="evenodd" fill-opacity="0.84209" fill="#d14671" opacity="1"/>
<path d="M58.7446+91.1221L84.3122+91.1221C84.6592+91.1221+84.9404+91.1486+84.9404+91.1813L84.9404+96.2007C84.9404+96.2334+84.6592+96.2598+84.3122+96.2598L58.7446+96.2598C58.3976+96.2598+58.1164+96.2334+58.1164+96.2007L58.1164+91.1813C58.1164+91.1486+58.3976+91.1221+58.7446+91.1221Z" fill-rule="evenodd" fill="#d14671" opacity="1"/>
<text x="0" font-family="sans-serif" y="0" text-anchor="middle" vectornator:text="designated&#xA;timestamp&#xA;column" fill="#ffffff" font-size="5" vectornator:width="27.4653" opacity="1" transform="matrix(1 0 0 1 57.7382 36.6183)">
<tspan x="13.7327" y="5" textLength="24.4653">
designated
</tspan>
<tspan x="13.7327" y="11" textLength="23.0615">
timestamp
</tspan>
<tspan x="13.7327" y="17" textLength="16.1182">
column</tspan>
</text>
<text x="0" font-family="sans-serif" y="0" text-anchor="middle" vectornator:text="&#x20;&#xA;timestamp&#xA;colum" fill="#ffffff" font-size="5" vectornator:width="26.0615" opacity="1" transform="matrix(1 0 0 1 98.9214 36.6183)">
<tspan x="13.7253" y="5" textLength="1.38916">
 
</tspan>
<tspan x="13.0308" y="11" textLength="23.0615">
timestamp
</tspan>
<tspan x="13.0308" y="17" textLength="13.3374">
colum</tspan>
</text>
<path d="M99.1686+59.4261L124.736+59.4261C125.083+59.4261+125.364+59.4526+125.364+59.4852L125.364+64.5046C125.364+64.5373+125.083+64.5638+124.736+64.5638L99.1686+64.5638C98.8216+64.5638+98.5404+64.5373+98.5404+64.5046L98.5404+59.4852C98.5404+59.4526+98.8216+59.4261+99.1686+59.4261Z" fill-rule="evenodd" fill-opacity="0.204004" fill="#d14671" opacity="1"/>
<path d="M99.2261+78.6903L124.794+78.6903C125.141+78.6903+125.422+78.7168+125.422+78.7495L125.422+83.7689C125.422+83.8016+125.141+83.828+124.794+83.828L99.2261+83.828C98.8791+83.828+98.5979+83.8016+98.5979+83.7689L98.5979+78.7495C98.5979+78.7168+98.8791+78.6903+99.2261+78.6903Z" fill-rule="evenodd" fill-opacity="0.404088" fill="#d14671" opacity="1"/>
<path d="M99.1686+71.8163L124.736+71.8163C125.083+71.8163+125.364+71.8428+125.364+71.8754L125.364+76.8949C125.364+76.9275+125.083+76.954+124.736+76.954L99.1686+76.954C98.8216+76.954+98.5404+76.9275+98.5404+76.8949L98.5404+71.8754C98.5404+71.8428+98.8216+71.8163+99.1686+71.8163Z" fill-rule="evenodd" fill-opacity="0.576521" fill="#d14671" opacity="1"/>
<path d="M99.1686+91.1221L124.736+91.1221C125.083+91.1221+125.364+91.1486+125.364+91.1813L125.364+96.2007C125.364+96.2334+125.083+96.2598+124.736+96.2598L99.1686+96.2598C98.8216+96.2598+98.5404+96.2334+98.5404+96.2007L98.5404+91.1813C98.5404+91.1486+98.8216+91.1221+99.1686+91.1221Z" fill-rule="evenodd" fill-opacity="0.690555" fill="#d14671" opacity="1"/>
<path d="M99.2261+84.8344L124.794+84.8344C125.141+84.8344+125.422+84.8609+125.422+84.8935L125.422+89.9129C125.422+89.9456+125.141+89.9721+124.794+89.9721L99.2261+89.9721C98.8791+89.9721+98.5979+89.9456+98.5979+89.9129L98.5979+84.8935C98.5979+84.8609+98.8791+84.8344+99.2261+84.8344Z" fill-rule="evenodd" fill-opacity="0.84209" fill="#d14671" opacity="1"/>
<path d="M99.2261+66.3064L124.794+66.3064C125.141+66.3064+125.422+66.3329+125.422+66.3656L125.422+71.385C125.422+71.4177+125.141+71.4442+124.794+71.4442L99.2261+71.4442C98.8791+71.4442+98.5979+71.4177+98.5979+71.385L98.5979+66.3656C98.5979+66.3329+98.8791+66.3064+99.2261+66.3064Z" fill-rule="evenodd" fill="#d14671" opacity="1"/>
<path d="M50.4376+105.424L87.2844+105.424C87.7844+105.424+88.1897+105.538+88.1897+105.677L88.1897+127.11C88.1897+127.25+87.7844+127.363+87.2844+127.363L50.4376+127.363C49.9376+127.363+49.5323+127.25+49.5323+127.11L49.5323+105.677C49.5323+105.538+49.9376+105.424+50.4376+105.424Z" fill-rule="evenodd" fill="#464353" opacity="1"/>
<path d="M96.1636+105.424L132.846+105.424C133.343+105.424+133.747+105.538+133.747+105.677L133.747+127.11C133.747+127.25+133.343+127.363+132.846+127.363L96.1636+127.363C95.6658+127.363+95.2623+127.25+95.2623+127.11L95.2623+105.677C95.2623+105.538+95.6658+105.424+96.1636+105.424Z" fill-rule="evenodd" fill="#464353" opacity="1"/>
<text x="0" font-family="sans-serif" y="0" text-anchor="middle" vectornator:text="ordered&#x20;timestamp&#x20;values" fill="#ffffff" font-size="5" vectornator:width="29.6929" opacity="1" transform="matrix(1 0 0 1 54.4702 108.721)">
<tspan x="15.541" y="5" textLength="18.623">
ordered </tspan>
<tspan x="15.541" y="11" textLength="24.4507">
timestamp </tspan>
<tspan x="14.8464" y="17" textLength="14.4531">
values</tspan>
</text>
<text x="0" font-family="sans-serif" y="0" text-anchor="middle" vectornator:text="unordered&#x20;timestamp&#x20;values" fill="#ffffff" font-size="5" vectornator:width="30.8864" opacity="1" transform="matrix(1 0 0 1 100.114 108.721)">
<tspan x="16.1378" y="5" textLength="24.1846">
unordered </tspan>
<tspan x="16.1378" y="11" textLength="24.4507">
timestamp </tspan>
<tspan x="15.4432" y="17" textLength="14.4531">
values</tspan>
</text>
<text x="0" font-family="sans-serif" y="0" text-anchor="middle" vectornator:text="Time" fill="#ffffff" font-size="5" vectornator:width="13.9277" opacity="1" transform="matrix(1 0 0 1 14.1591 77.5466)"/>
</g>
</svg>

<svg height="100%" xmlns="http://www.w3.org/2000/svg" xml:space="preserve" width="100%" xmlns:vectornator="http://vectornator.io" version="1.1" viewBox="0 0 170.1 141.75" fill-rule="evenodd" clip-rule="evenodd" stroke-linecap="round" stroke-linejoin="round"><defs><linearGradient y1="93.625" id="LinearGradient" x1="29.53" y2="73.947" x2="29.53" gradientUnits="userSpaceOnUse" gradientTransform="translate(13.734 -10.067)"><stop stop-color="#d14671" offset="0"/><stop stop-color="#fff" offset="1"/></linearGradient></defs><g id="layer1 copy" vectornator:layerName="layer1 copy"><path d="M51.505 15.84h80.27c1.089 0 1.972.45 1.972 1.003v85.065c0 .554-.883 1.003-1.972 1.003h-80.27c-1.09 0-1.973-.449-1.973-1.003V16.843c0-.553.883-1.002 1.973-1.002z" fill-rule="evenodd" fill="#464353" opacity="1"/><text x="0" font-family="sans-serif" y="0" text-anchor="middle" vectornator:text="Table" fill="#fff" font-size="5" vectornator:width="14.953" opacity="1" transform="translate(84.163 20.331)"><tspan x="7.477" y="5" textLength="11.953">Table</tspan></text><path d="M44.703 101.564l.297-.319 2.401-2.574.21-.227c.03-.031.032-.068.007-.1a.23.23 0 00-.137-.073.45.45 0 00-.092-.01l-1.428-.006c-.135 0-.246-.058-.247-.128l-.039-6.31c0-.07-.11-.127-.246-.128l-2.016-.01c-.136 0-.247.056-.246.127l.038 6.31c0 .07-.11.125-.244.125l-1.46-.007a.448.448 0 00-.091.009c-.063.013-.112.039-.136.072-.025.032-.022.069.008.1l.216.229 2.458 2.596.304.322c.042.044.128.072.222.072s.18-.027.22-.07z" fill-rule="evenodd" fill="#d14671" opacity="1"/><path d="M96.045 55.807h31.872c.432 0 .783.218.783.488v41.41c0 .27-.351.488-.783.488H96.045c-.432 0-.783-.219-.783-.488v-41.41c0-.27.35-.488.783-.488z" fill-rule="evenodd" fill="#5f5e67" opacity="1"/><path d="M43.264 90.831V56.308c0-.469.012-.849.027-.849h2.31c.015 0 .027.38.027.849V90.83c0 .469-.012.849-.027.849h-2.31c-.015 0-.027-.38-.027-.849z" fill-rule="evenodd" fill="url(#LinearGradient)" opacity="1"/><path stroke="#61cfee" fill-rule="evenodd" stroke-width=".5" d="M55.535 55.807h31.872c.432 0 .783.218.783.488v41.41c0 .27-.35.488-.783.488H55.535c-.432 0-.783-.219-.783-.488v-41.41c0-.27.35-.488.783-.488z" fill="#5f5e67" stroke-linecap="round" opacity="1" stroke-linejoin="round"/><path d="M58.687 60.019h25.568c.347 0 .628.026.628.059v5.02c0 .032-.281.058-.628.058H58.687c-.347 0-.628-.026-.628-.059v-5.02c0-.032.281-.058.628-.058z" fill-rule="evenodd" fill-opacity=".204" fill="#d14671" opacity="1"/><path d="M58.687 66.306h25.568c.347 0 .628.027.628.06v5.019c0 .033-.281.06-.628.06H58.687c-.347 0-.628-.027-.628-.06v-5.02c0-.032.281-.059.628-.059z" fill-rule="evenodd" fill-opacity=".404" fill="#d14671" opacity="1"/><path d="M58.687 72.409h25.568c.347 0 .628.026.628.06v5.019c0 .032-.281.059-.628.059H58.687c-.347 0-.628-.027-.628-.06v-5.019c0-.033.281-.06.628-.06z" fill-rule="evenodd" fill-opacity=".577" fill="#d14671" opacity="1"/><path d="M58.687 78.697h25.568c.347 0 .628.026.628.059v5.02c0 .032-.281.058-.628.058H58.687c-.347 0-.628-.026-.628-.059v-5.02c0-.032.281-.058.628-.058z" fill-rule="evenodd" fill-opacity=".691" fill="#d14671" opacity="1"/><path d="M58.745 84.834h25.567c.347 0 .628.027.628.06v5.019c0 .033-.28.06-.628.06H58.745c-.347 0-.629-.027-.629-.06v-5.02c0-.032.282-.059.629-.059z" fill-rule="evenodd" fill-opacity=".842" fill="#d14671" opacity="1"/><path d="M58.745 91.122h25.567c.347 0 .628.027.628.06V96.2c0 .032-.28.059-.628.059H58.745c-.347 0-.629-.027-.629-.06V91.18c0-.032.282-.059.629-.059z" fill-rule="evenodd" fill="#d14671" opacity="1"/><text x="0" font-family="sans-serif" y="0" text-anchor="middle" vectornator:text="designated timestamp column" fill="#fff" font-size="5" vectornator:width="27.465" opacity="1" transform="translate(57.738 36.618)"><tspan x="13.733" y="5" textLength="24.465">designated </tspan> <tspan x="13.733" y="11" textLength="23.061"> timestamp </tspan> <tspan x="13.733" y="17" textLength="16.118"> column</tspan></text><text x="0" font-family="sans-serif" y="0" text-anchor="middle" vectornator:text="timestamp colum" fill="#fff" font-size="5" vectornator:width="26.061" opacity="1" transform="translate(98.921 36.618)"><tspan x="13.031" y="11" textLength="23.061">timestamp </tspan> <tspan x="13.031" y="17" textLength="13.337"> colum</tspan></text><path d="M99.169 59.426h25.567c.347 0 .628.027.628.06v5.019c0 .032-.281.059-.628.059H99.169c-.347 0-.629-.027-.629-.06v-5.019c0-.032.282-.059.629-.059z" fill-rule="evenodd" fill-opacity=".204" fill="#d14671" opacity="1"/><path d="M99.226 78.69h25.568c.347 0 .628.027.628.06v5.019c0 .033-.281.059-.628.059H99.226c-.347 0-.628-.026-.628-.06V78.75c0-.032.281-.059.628-.059z" fill-rule="evenodd" fill-opacity=".404" fill="#d14671" opacity="1"/><path d="M99.169 71.816h25.567c.347 0 .628.027.628.06v5.019c0 .032-.281.059-.628.059H99.169c-.347 0-.629-.026-.629-.06v-5.019c0-.032.282-.059.629-.059z" fill-rule="evenodd" fill-opacity=".577" fill="#d14671" opacity="1"/><path d="M99.169 91.122h25.567c.347 0 .628.027.628.06V96.2c0 .032-.281.059-.628.059H99.169c-.347 0-.629-.027-.629-.06V91.18c0-.032.282-.059.629-.059z" fill-rule="evenodd" fill-opacity=".691" fill="#d14671" opacity="1"/><path d="M99.226 84.834h25.568c.347 0 .628.027.628.06v5.019c0 .033-.281.06-.628.06H99.226c-.347 0-.628-.027-.628-.06v-5.02c0-.032.281-.059.628-.059z" fill-rule="evenodd" fill-opacity=".842" fill="#d14671" opacity="1"/><path d="M99.226 66.306h25.568c.347 0 .628.027.628.06v5.019c0 .033-.281.06-.628.06H99.226c-.347 0-.628-.027-.628-.06v-5.02c0-.032.281-.059.628-.059z" fill-rule="evenodd" fill="#d14671" opacity="1"/><path d="M50.438 105.424h36.846c.5 0 .906.114.906.253v21.433c0 .14-.406.253-.906.253H50.438c-.5 0-.906-.113-.906-.253v-21.433c0-.139.406-.253.906-.253zm45.726 0h36.682c.497 0 .901.114.901.253v21.433c0 .14-.404.253-.901.253H96.164c-.498 0-.902-.113-.902-.253v-21.433c0-.139.404-.253.902-.253z" fill-rule="evenodd" fill="#464353" opacity="1"/><text x="0" font-family="sans-serif" y="0" text-anchor="middle" vectornator:text="ordered timestamp values" fill="#fff" font-size="5" vectornator:width="29.693" opacity="1" transform="translate(54.47 108.721)"><tspan x="15.541" y="5" textLength="18.623">ordered </tspan> <tspan x="15.541" y="11" textLength="24.451"> timestamp </tspan> <tspan x="14.846" y="17" textLength="14.453"> values</tspan></text><text x="0" font-family="sans-serif" y="0" text-anchor="middle" vectornator:text="unordered timestamp values" fill="#fff" font-size="5" vectornator:width="30.886" opacity="1" transform="translate(100.114 108.721)"><tspan x="16.138" y="5" textLength="24.185">unordered </tspan> <tspan x="16.138" y="11" textLength="24.451"> timestamp </tspan> <tspan x="15.443" y="17" textLength="14.453"> values</tspan></text></g></svg>
